flaticon/science/syringe-2.svg

<svg xmlns="http://www.w3.org/2000/svg" width="32" height="32" viewBox="0 0 24 24">
    <path d="M 23.875 3.066406 L 20.933594 0.125 C 20.765625 -0.0429688 20.519531 -0.0429688 20.351562 0.125 C 20.1875 0.289062 20.1875 0.539062 20.351562 0.703125 L 20.640625 0.996094 L 17.96875 3.667969 L 16.496094 2.195312 C 16.332031 2.03125 16.082031 2.03125 15.917969 2.195312 L 14.757812 3.359375 C 14.671875 3.441406 14.632812 3.523438 14.632812 3.648438 C 14.632812 3.773438 14.671875 3.855469 14.757812 3.9375 L 15.070312 4.246094 L 7.171875 12.144531 C 6.308594 13.042969 6.226562 14.417969 6.921875 15.378906 L 6.011719 16.289062 C 5.964844 16.335938 5.933594 16.378906 5.914062 16.429688 L 4.765625 17.574219 C 4.40625 17.9375 4.332031 18.453125 4.542969 18.878906 L 0.125 23.296875 C -0.0429688 23.460938 -0.0429688 23.710938 0.125 23.875 C 0.207031 23.957031 0.289062 24 0.414062 24 C 0.539062 24 0.621094 23.957031 0.703125 23.875 L 5.089844 19.488281 C 5.277344 19.617188 5.5 19.6875 5.71875 19.6875 C 6.050781 19.6875 6.300781 19.566406 6.507812 19.316406 L 7.75 18.074219 C 7.796875 18.027344 7.828125 17.984375 7.847656 17.933594 L 8.660156 17.125 C 9.066406 17.425781 9.558594 17.574219 10.074219 17.574219 C 10.734375 17.574219 11.359375 17.328125 11.855469 16.828125 L 19.769531 8.914062 L 20.0625 9.203125 C 20.144531 9.285156 20.226562 9.328125 20.351562 9.328125 C 20.433594 9.328125 20.558594 9.285156 20.601562 9.203125 L 21.761719 8.042969 C 21.84375 7.957031 21.886719 7.875 21.886719 7.75 C 21.886719 7.625 21.84375 7.542969 21.761719 7.460938 L 20.289062 5.988281 L 22.964844 3.316406 L 23.296875 3.648438 C 23.378906 3.730469 23.460938 3.773438 23.585938 3.773438 C 23.667969 3.773438 23.792969 3.730469 23.875 3.648438 C 24.042969 3.480469 24.042969 3.234375 23.875 3.066406 Z M 13.597656 6.878906 L 15.667969 4.851562 L 16.269531 5.449219 L 14.21875 7.503906 Z M 14.757812 8.042969 L 16.808594 5.988281 L 17.96875 7.148438 L 15.917969 9.203125 Z M 7.460938 15.957031 L 8.042969 16.539062 L 7.460938 17.121094 L 6.878906 16.539062 Z M 5.925781 18.734375 C 5.84375 18.859375 5.636719 18.859375 5.511719 18.734375 L 5.347656 18.570312 C 5.222656 18.488281 5.222656 18.28125 5.347656 18.15625 L 6.300781 17.203125 L 6.878906 17.78125 Z M 11.234375 16.207031 C 10.941406 16.539062 10.527344 16.703125 10.074219 16.703125 C 9.65625 16.703125 9.242188 16.539062 8.910156 16.207031 L 7.75 15.046875 C 7.089844 14.425781 7.089844 13.386719 7.75 12.726562 L 8.910156 11.566406 L 10.074219 12.726562 C 10.15625 12.808594 10.238281 12.851562 10.363281 12.851562 C 10.488281 12.851562 10.613281 12.808594 10.652344 12.726562 C 10.820312 12.558594 10.820312 12.3125 10.652344 12.144531 L 9.492188 10.984375 L 10.382812 10.09375 L 11.566406 11.273438 C 11.648438 11.359375 11.730469 11.398438 11.855469 11.398438 C 11.9375 11.398438 12.0625 11.359375 12.144531 11.273438 C 12.3125 11.109375 12.3125 10.859375 12.144531 10.695312 L 10.964844 9.511719 L 11.835938 8.640625 L 13.015625 9.824219 C 13.097656 9.90625 13.179688 9.949219 13.304688 9.949219 C 13.429688 9.949219 13.511719 9.90625 13.597656 9.824219 C 13.761719 9.65625 13.761719 9.410156 13.597656 9.242188 L 12.414062 8.0625 L 13.015625 7.460938 L 13.925781 8.375 L 15.667969 10.113281 L 16.496094 10.941406 Z M 17.121094 10.402344 L 16.539062 9.824219 L 18.589844 7.773438 L 19.191406 8.371094 Z M 20.351562 8.332031 L 15.667969 3.648438 L 16.25 3.066406 L 17.699219 4.519531 L 19.480469 6.300781 L 20.933594 7.75 Z M 19.730469 5.386719 L 18.570312 4.226562 L 21.222656 1.617188 L 22.382812 2.777344 Z M 19.730469 5.386719"/>
</svg>

<svg xmlns="http://www.w3.org/2000/svg" width="32" height="32" viewBox="0 0 24 24">
    <path d="M23.875 3.066L20.934.125a.4.4 0 0 0-.582 0 .401.401 0 0 0 0 .578l.289.293-2.672 2.672-1.473-1.473a.401.401 0 0 0-.578 0l-1.16 1.164a.363.363 0 0 0-.125.29c0 .124.039.206.125.288l.312.31-7.898 7.898c-.863.898-.945 2.273-.25 3.234l-.91.91a.4.4 0 0 0-.098.14l-1.148 1.145c-.36.363-.434.88-.223 1.305L.125 23.297a.395.395 0 0 0 0 .578.375.375 0 0 0 .29.125.375.375 0 0 0 .288-.125l4.387-4.387c.187.13.41.2.629.2a.96.96 0 0 0 .789-.372l1.242-1.242a.4.4 0 0 0 .098-.14l.812-.809c.406.3.899.45 1.414.45.66 0 1.285-.247 1.781-.747l7.915-7.914.293.29a.375.375 0 0 0 .289.124c.082 0 .207-.043.25-.125l1.16-1.16a.39.39 0 0 0 .125-.293.375.375 0 0 0-.125-.29l-1.473-1.472 2.676-2.672.332.332a.375.375 0 0 0 .289.125.45.45 0 0 0 .289-.125.4.4 0 0 0 0-.582zM13.598 6.88l2.07-2.027.602.597-2.051 2.055zm1.16 1.164l2.05-2.055 1.16 1.16-2.05 2.055zM7.46 15.957l.582.582-.582.582-.582-.582zm-1.535 2.777c-.082.125-.29.125-.414 0l-.164-.164c-.125-.082-.125-.289 0-.414l.953-.953.578.578zm5.308-2.527c-.293.332-.707.496-1.16.496-.418 0-.832-.164-1.164-.496l-1.16-1.16c-.66-.621-.66-1.66 0-2.32l1.16-1.16 1.164 1.16a.375.375 0 0 0 .29.125c.124 0 .25-.043.288-.125a.4.4 0 0 0 0-.582l-1.16-1.16.89-.891 1.184 1.18a.363.363 0 0 0 .29.124c.082 0 .207-.039.289-.125a.395.395 0 0 0 0-.578l-1.18-1.183.87-.871 1.18 1.183a.375.375 0 0 0 .29.125.39.39 0 0 0 .293-.125.406.406 0 0 0 0-.582l-1.184-1.18.602-.601.91.914 1.742 1.738.828.828zm5.887-5.805l-.582-.578 2.05-2.05.602.597zm3.23-2.07l-4.683-4.684.582-.582L17.7 4.52l1.78 1.78 1.454 1.45zm-.62-2.945l-1.16-1.16 2.652-2.61 1.16 1.16zm0 0"/>
</svg>
